resources/icons/20px/new-layer.svg

<svg xmlns="http://www.w3.org/2000/svg" viewBox="0 0 20 20">
  <path d="M11.5128 5.66269C11.194 6.017 11 6.48584 11 7C11 8.10457 11.8954 9 13 9H14V10C14 11.1046 14.8954 12 16 12C17.1046 12 18 11.1046 18 10V9.26667L19.5 10.1C19.8 10.3 20 10.6 20 11C20 11.4 19.8 11.7 19.5 11.9L10.5 16.9C10.3 17 10.2 17 10 17C9.8 17 9.7 17 9.5 16.9L0.5 11.9C0.2 11.7 0 11.4 0 11C0 10.6 0.2 10.3 0.5 10.1L9.5 5.1C9.7 5 9.8 5 10 5C10.2 5 10.3 5 10.5 5.1L11.5128 5.66269ZM17 6H19C19.5523 6 20 6.44772 20 7C20 7.55228 19.5523 8 19 8H17V10C17 10.5523 16.5523 11 16 11C15.4477 11 15 10.5523 15 10V8H13C12.4477 8 12 7.55228 12 7C12 6.44772 12.4477 6 13 6H15V4C15 3.44772 15.4477 3 16 3C16.5523 3 17 3.44772 17 4V6Z" />
</svg>

<svg xmlns="http://www.w3.org/2000/svg" viewBox="0 0 20 20">
  <path d="M11.513 5.663A2 2 0 0 0 13 9h1v1a2 2 0 1 0 4 0v-.733l1.5.833c.3.2.5.5.5.9s-.2.7-.5.9l-9 5c-.2.1-.3.1-.5.1s-.3 0-.5-.1l-9-5c-.3-.2-.5-.5-.5-.9s.2-.7.5-.9l9-5c.2-.1.3-.1.5-.1s.3 0 .5.1zM17 6h2a1 1 0 1 1 0 2h-2v2a1 1 0 1 1-2 0V8h-2a1 1 0 1 1 0-2h2V4a1 1 0 1 1 2 0z"/>
</svg>
